X: 21502
T: Kid In The Meadow, The
R: jig
M: 6/8
K: Dmajor
|:d2z ecA|BAF AFE|~E3 G2A|Bdc B2z|
dcd ecA|BAF AFE|~D3 DEF|~E3 D2 z:|
|:~d3 fef|gfe ~f3|EDE G2A|Bdc BAB|
~d3 fef|gfe ~f3|agf gfe|dBc d2z:|

